; generated by PrusaSlicer 2.3.2+win32 on 2021-07-13 at 10:58:00 UTC

; 

; external perimeters extrusion width = 0.45mm
; perimeters extrusion width = 0.45mm
; infill extrusion width = 0.45mm
; solid infill extrusion width = 0.45mm
; top infill extrusion width = 0.40mm
; first layer extrusion width = 0.42mm

M107
M104 S200 ; set temperature
;TYPE:Custom
G28 ; home all axes
G1 Z5 F5000 ; lift nozzle
M109 S200 ; set temperature and wait for it to be reached
G21 ; set units to millimeters
G90 ; use absolute coordinates
M82 ; use absolute distances for extrusion
G92 E0
; Filament gcode
;LAYER_CHANGE
;Z:0.35
;HEIGHT:0.35
G1 Z0.350 F7800.000
G1 X82.903 Y85.942
;TYPE:Skirt
;WIDTH:0.42
G1 F1800.000
G1 X84.907 Y83.828 E0.14620
G1 X85.587 Y83.216 E0.19211
G1 X87.952 Y81.438 E0.34058
G1 X90.521 Y80.018 E0.48792
G1 X91.309 Y79.661 E0.53132
G1 X94.118 Y78.674 E0.68075
G1 X96.941 Y78.105 E0.82527
G1 X97.836 Y77.995 E0.87053
G1 X100.557 Y77.894 E1.00717
G1 X104.236 Y78.297 E1.19290
G1 X107.032 Y79.048 E1.33821
G1 X107.920 Y79.373 E1.38567
G1 X110.558 Y80.579 E1.53125
G1 X112.976 Y82.121 E1.67517
G1 X113.705 Y82.671 E1.72097
G1 X115.870 Y84.620 E1.86717
G1 X118.118 Y87.350 E2.04467
G1 X119.613 Y89.840 E2.19042
G1 X120.021 Y90.686 E2.23756
G1 X121.061 Y93.322 E2.37979
G1 X121.756 Y96.206 E2.52867
G1 X121.889 Y97.071 E2.57260
G1 X122.093 Y100.019 E2.72089
G1 X121.884 Y102.972 E2.86945
G1 X121.747 Y103.840 E2.91353
G1 X121.069 Y106.652 E3.05874
G1 X119.993 Y109.377 E3.20576
G1 X119.595 Y110.192 E3.25128
G1 X118.119 Y112.649 E3.39512
G1 X115.874 Y115.376 E3.57237
G1 X113.739 Y117.301 E3.71663
G1 X113.045 Y117.830 E3.76045
G1 X110.554 Y119.424 E3.90886
G1 X107.919 Y120.629 E4.05429
G1 X107.075 Y120.938 E4.09939
G1 X104.239 Y121.702 E4.24680
G1 X100.566 Y122.106 E4.43224
G1 X97.820 Y122.004 E4.57011
G1 X96.937 Y121.894 E4.61479
G1 X94.131 Y121.330 E4.75840
G1 X91.401 Y120.372 E4.90364
G1 X90.553 Y119.999 E4.95010
G1 X88.026 Y118.609 E5.09486
G1 X85.161 Y116.419 E5.27583
G1 X83.203 Y114.401 E5.41692
G1 X82.629 Y113.700 E5.46242
G1 X80.949 Y111.272 E5.61058
G1 X79.641 Y108.671 E5.75671
G1 X79.315 Y107.864 E5.80038
G1 X78.439 Y105.028 E5.94933
G1 X77.971 Y102.125 E6.09693
G1 X77.904 Y101.164 E6.14524
G1 X77.927 Y98.285 E6.28973
G1 X78.350 Y95.423 E6.43493
G1 X78.559 Y94.524 E6.48126
G1 X79.459 Y91.744 E6.62789
G1 X80.747 Y89.095 E6.77572
G1 X81.221 Y88.299 E6.82222
G1 X82.868 Y85.991 E6.96451
G92 E0
G1 X88.632 Y90.703 F7800.000
;TYPE:Perimeter
G1 F1800.000
G1 X90.219 Y89.047 E0.11510
G1 X92.006 Y87.685 E0.22784
G1 X94.012 Y86.599 E0.34232
G1 X96.085 Y85.856 E0.45282
G1 X98.271 Y85.431 E0.56462
G1 X100.530 Y85.341 E0.67808
G1 X102.776 Y85.600 E0.79150
G1 X104.985 Y86.215 E0.90658
G1 X106.983 Y87.111 E1.01647
G1 X108.825 Y88.303 E1.12660
G1 X110.549 Y89.830 E1.24215
G1 X111.970 Y91.553 E1.35427
G1 X113.143 Y93.536 E1.46989
G1 X113.960 Y95.566 E1.57971
G1 X114.474 Y97.757 E1.69262
G1 X114.646 Y99.998 E1.80543
G1 X114.474 Y102.242 E1.91839
G1 X113.964 Y104.423 E2.03078
G1 X113.102 Y106.548 E2.14587
G1 X111.977 Y108.438 E2.25627
G1 X110.545 Y110.174 E2.36918
G1 X108.866 Y111.670 E2.48205
G1 X106.981 Y112.890 E2.59475
G1 X104.981 Y113.788 E2.70476
G1 X102.768 Y114.401 E2.82000
G1 X100.528 Y114.659 E2.93319
G1 X98.258 Y114.567 E3.04717
G1 X96.086 Y114.144 E3.15822
G1 X94.033 Y113.407 E3.26772
G1 X92.008 Y112.316 E3.38315
G1 X90.183 Y110.918 E3.49852
G1 X88.661 Y109.335 E3.60871
G1 X87.396 Y107.539 E3.71899
G1 X86.370 Y105.481 E3.83436
G1 X85.686 Y103.302 E3.94900
G1 X85.351 Y101.124 E4.05959
G1 X85.349 Y98.932 E4.16959
G1 X85.692 Y96.664 E4.28472
G1 X86.387 Y94.482 E4.39965
G1 X87.366 Y92.506 E4.51033
G1 X88.598 Y90.752 E4.61790
G1 X88.316 Y90.554 F7800.000
G1 F1800.000
G1 X88.365 Y90.483 E4.62222
G1 X89.989 Y88.789 E4.73999
G1 X91.818 Y87.395 E4.85543
G1 X93.871 Y86.284 E4.97257
G1 X95.993 Y85.523 E5.08570
G1 X98.231 Y85.087 E5.20014
G1 X100.543 Y84.996 E5.31626
G1 X102.842 Y85.261 E5.43238
G1 X105.102 Y85.890 E5.55012
G1 X107.148 Y86.808 E5.66263
G1 X109.035 Y88.027 E5.77539
G1 X110.797 Y89.590 E5.89361
G1 X112.253 Y91.355 E6.00843
G1 X113.453 Y93.383 E6.12671
G1 X114.290 Y95.462 E6.23917
G1 X114.816 Y97.704 E6.35473
G1 X114.992 Y99.998 E6.47020
G1 X114.816 Y102.295 E6.58582
G1 X114.293 Y104.527 E6.70088
G1 X113.412 Y106.702 E6.81864
G1 X112.260 Y108.637 E6.93168
G1 X110.794 Y110.414 E7.04725
G1 X109.075 Y111.945 E7.16277
G1 X107.146 Y113.193 E7.27812
G1 X105.098 Y114.113 E7.39077
G1 X102.834 Y114.741 E7.50867
G1 X100.540 Y115.005 E7.62456
G1 X98.218 Y114.911 E7.74121
G1 X95.995 Y114.478 E7.85488
G1 X93.892 Y113.723 E7.96701
G1 X91.820 Y112.606 E8.08512
G1 X89.952 Y111.176 E8.20318
G1 X88.394 Y109.555 E8.31601
G1 X87.099 Y107.716 E8.42891
G1 X86.049 Y105.611 E8.54697
G1 X85.349 Y103.380 E8.66429
G1 X85.006 Y101.150 E8.77752
G1 X85.004 Y98.906 E8.89014
G1 X85.355 Y96.585 E9.00795
G1 X86.066 Y94.352 E9.12557
G1 X87.069 Y92.329 E9.23889
G1 X88.281 Y90.603 E9.34476
G1 X87.999 Y90.404 F7800.000
;TYPE:External perimeter
G1 F1800.000
G1 X88.098 Y90.263 E9.35341
G1 X89.758 Y88.530 E9.47385
G1 X91.631 Y87.104 E9.59198
G1 X93.730 Y85.968 E9.71178
G1 X95.902 Y85.189 E9.82755
G1 X98.191 Y84.743 E9.94462
G1 X100.557 Y84.650 E10.06341
G1 X102.908 Y84.921 E10.18222
G1 X105.220 Y85.565 E10.30263
G1 X107.313 Y86.504 E10.41776
G1 X109.244 Y87.752 E10.53315
G1 X111.046 Y89.349 E10.65403
G1 X112.537 Y91.156 E10.77156
G1 X113.764 Y93.230 E10.89250
G1 X114.620 Y95.357 E11.00759
G1 X115.157 Y97.651 E11.12580
G1 X115.338 Y99.998 E11.24394
G1 X115.158 Y102.348 E11.36221
G1 X114.623 Y104.632 E11.47996
G1 X113.722 Y106.856 E11.60038
G1 X112.542 Y108.836 E11.71605
G1 X111.044 Y110.653 E11.83428
G1 X109.285 Y112.220 E11.95246
G1 X107.311 Y113.497 E12.07046
G1 X105.216 Y114.438 E12.18575
G1 X102.901 Y115.080 E12.30631
G1 X100.553 Y115.350 E12.42490
G1 X98.178 Y115.254 E12.54421
G1 X95.903 Y114.811 E12.66052
G1 X93.751 Y114.039 E12.77526
G1 X91.632 Y112.897 E12.89605
G1 X89.722 Y111.434 E13.01681
G1 X88.127 Y109.775 E13.13227
G1 X86.802 Y107.893 E13.24781
G1 X85.729 Y105.740 E13.36854
G1 X85.012 Y103.459 E13.48855
G1 X84.661 Y101.177 E13.60441
G1 X84.659 Y98.880 E13.71966
G1 X85.018 Y96.507 E13.84014
G1 X85.745 Y94.222 E13.96046
G1 X86.772 Y92.152 E14.07641
G1 X87.965 Y90.454 E14.18059
G1 X88.171 Y90.415 F7800.000
G92 E0
G1 X108.688 Y88.337
;TYPE:Solid infill
;WIDTH:0.422013
G1 F1800.000
G1 X110.366 Y90.015 E0.11976
G1 X111.758 Y91.702 E0.23020
G1 X112.041 Y92.180 E0.25823
G1 X107.823 Y87.963 E0.55931
G1 X106.859 Y87.339 E0.61729
G1 X106.588 Y87.218 E0.63229
G1 X112.751 Y93.382 E1.07231
G1 X112.911 Y93.651 E1.08811
G1 X113.167 Y94.288 E1.12276
G1 X105.698 Y86.818 E1.65598
G1 X104.829 Y86.440 E1.70381
G1 X113.497 Y95.109 E2.32264
G1 X113.713 Y95.644 E2.35179
G1 X113.765 Y95.867 E2.36333
G1 X104.149 Y86.251 E3.04980
G1 X103.469 Y86.062 E3.08543
G1 X113.915 Y96.508 E3.83116
G1 X114.066 Y97.149 E3.86438
G1 X102.789 Y85.872 E4.66937
G1 X102.223 Y85.797 E4.69821
G1 X114.216 Y97.790 E5.55434
G1 X114.258 Y98.322 E5.58132
G1 X101.669 Y85.733 E6.48004
G1 X101.114 Y85.669 E6.50822
G1 X114.299 Y98.854 E7.44946
G1 X114.340 Y99.385 E7.47637
G1 X100.559 Y85.605 E8.46012
G1 X100.082 Y85.618 E8.48424
G1 X114.381 Y99.917 E9.50501
G1 X114.357 Y100.384 E9.52863
G1 X99.610 Y85.637 E10.58142
G1 X99.138 Y85.655 E10.60526
G1 X114.322 Y100.840 E11.68924
G1 X114.287 Y101.295 E11.71231
G1 X98.666 Y85.674 E12.82748
G1 X98.208 Y85.706 E12.85066
G1 X114.252 Y101.751 E13.99603
G1 X114.217 Y102.206 E14.01907
G1 X97.797 Y85.786 E15.19123
G1 X97.387 Y85.866 E15.21234
G1 X114.124 Y102.603 E16.40717
G1 X114.031 Y103.001 E16.42778
G1 X96.976 Y85.946 E17.64527
G1 X96.565 Y86.026 E17.66639
G1 X113.938 Y103.399 E18.90656
G1 X113.845 Y103.796 E18.92717
G1 X96.155 Y86.106 E20.19002
G1 X95.794 Y86.236 E20.20939
G1 X113.752 Y104.194 E21.49138
G1 X113.717 Y104.344 E21.49917
G1 X113.628 Y104.561 E21.51099
G1 X95.432 Y86.365 E22.80997
G1 X95.071 Y86.494 E22.82934
G1 X113.487 Y104.910 E24.14400
G1 X113.345 Y105.259 E24.16301
G1 X94.710 Y86.624 E25.49335
G1 X94.349 Y86.753 E25.51271
G1 X113.204 Y105.608 E26.85873
G1 X113.062 Y105.957 E26.87774
G1 X94.003 Y86.898 E28.23833
G1 X93.685 Y87.071 E28.25660
G1 X112.921 Y106.307 E29.62981
G1 X112.870 Y106.432 E29.63667
G1 X112.753 Y106.629 E29.64822
G1 X93.367 Y87.243 E31.03215
G1 X93.048 Y87.415 E31.05042
G1 X112.570 Y106.937 E32.44400
G1 X112.387 Y107.244 E32.46207
G1 X92.730 Y87.588 E33.86530
G1 X92.412 Y87.760 E33.88357
G1 X112.204 Y107.552 E35.29646
G1 X112.020 Y107.859 E35.31452
G1 X92.100 Y87.939 E36.73658
G1 X91.822 Y88.151 E36.75425
G1 X111.837 Y108.166 E38.18312
G1 X111.765 Y108.289 E38.19029
G1 X111.631 Y108.451 E38.20090
G1 X91.543 Y88.363 E39.63491
G1 X91.265 Y88.575 E39.65258
G1 X111.409 Y108.720 E41.09064
G1 X111.187 Y108.988 E41.10823
G1 X90.986 Y88.787 E42.55034
G1 X90.708 Y88.999 E42.56801
G1 X110.966 Y109.257 E44.01417
G1 X110.744 Y109.526 E44.03176
G1 X90.429 Y89.212 E45.48197
G1 X90.184 Y89.457 E45.49948
G1 X110.522 Y109.795 E46.95136
G1 X110.358 Y109.994 E46.96437
G1 X110.291 Y110.054 E46.96894
G1 X89.944 Y89.708 E48.42143
G1 X89.704 Y89.958 E48.43895
G1 X110.031 Y110.285 E49.89005
G1 X109.772 Y110.516 E49.90759
G1 X89.464 Y90.209 E51.35731
G1 X89.224 Y90.459 E51.37483
G1 X109.512 Y110.747 E52.82316
G1 X109.253 Y110.978 E52.84070
G1 X88.984 Y90.710 E54.28765
G1 X88.758 Y90.974 E54.30521
G1 X108.993 Y111.210 E55.74978
G1 X108.734 Y111.441 E55.76732
G1 X88.555 Y91.262 E57.20781
G1 X88.353 Y91.551 E57.22559
G1 X108.440 Y111.637 E58.65953
G1 X108.142 Y111.830 E58.67744
G1 X88.151 Y91.839 E60.10457
G1 X87.948 Y92.127 E60.12234
G1 X107.844 Y112.023 E61.54265
G1 X107.546 Y112.215 E61.56056
G1 X87.746 Y92.415 E62.97406
G1 X87.553 Y92.712 E62.99196
G1 X107.248 Y112.408 E64.39800
G1 X106.950 Y112.601 E64.41591
G1 X87.390 Y93.040 E65.81230
G1 X87.227 Y93.368 E65.83078
G1 X106.625 Y112.766 E67.21552
G1 X106.286 Y112.918 E67.23425
G1 X87.065 Y93.696 E68.60643
G1 X86.902 Y94.024 E68.62491
G1 X105.948 Y113.070 E69.98454
G1 X105.609 Y113.222 E70.00327
G1 X86.739 Y94.352 E71.35033
G1 X86.590 Y94.694 E71.36914
G1 X105.271 Y113.374 E72.70267
G1 X104.932 Y113.526 E72.72140
G1 X86.472 Y95.066 E74.03922
G1 X86.354 Y95.438 E74.05893
G1 X104.553 Y113.638 E75.35816
G1 X104.169 Y113.744 E75.37828
G1 X86.235 Y95.810 E76.65854
G1 X86.117 Y96.183 E76.67826
G1 X103.785 Y113.851 E77.93956
G1 X103.401 Y113.957 E77.95968
G1 X85.998 Y96.555 E79.20201
G1 X85.945 Y96.723 E79.21092
G1 X85.909 Y96.956 E79.22285
G1 X103.017 Y114.064 E80.44411
G1 X102.620 Y114.158 E80.46468
G1 X85.845 Y97.383 E81.66224
G1 X85.781 Y97.809 E81.68400
G1 X102.180 Y114.209 E82.85474
G1 X101.740 Y114.259 E82.87710
G1 X85.716 Y98.235 E84.02103
G1 X85.652 Y98.661 E84.04279
G1 X101.300 Y114.310 E85.15991
G1 X100.860 Y114.360 E85.18227
G1 X85.608 Y99.108 E86.27110
G1 X85.608 Y99.599 E86.29589
G1 X100.405 Y114.395 E87.35216
G1 X99.893 Y114.374 E87.37799
G1 X85.609 Y100.090 E88.39774
G1 X85.609 Y100.581 E88.42253
G1 X99.382 Y114.354 E89.40576
G1 X98.871 Y114.333 E89.43159
G1 X85.609 Y101.072 E90.37830
G1 X85.692 Y101.645 E90.40757
G1 X98.360 Y114.312 E91.31185
G1 X97.764 Y114.207 E91.34238
G1 X85.782 Y102.225 E92.19777
G1 X85.871 Y102.805 E92.22738
G1 X97.155 Y114.089 E93.03291
G1 X96.545 Y113.970 E93.06424
G1 X85.993 Y103.418 E93.81755
G1 X86.218 Y104.133 E93.85540
G1 X95.880 Y113.795 E94.54517
G1 X95.115 Y113.521 E94.58620
G1 X86.442 Y104.848 E95.20530
G1 X86.611 Y105.384 E95.23365
G1 X86.733 Y105.630 E95.24750
G1 X94.350 Y113.246 E95.79123
G1 X94.138 Y113.170 E95.80258
G1 X93.368 Y112.755 E95.84673
G1 X87.221 Y106.608 E96.28558
G1 X87.619 Y107.406 E96.33059
G1 X87.834 Y107.712 E96.34947
G1 X92.304 Y112.182 E96.66857
G1 X92.149 Y112.098 E96.67746
G1 X90.360 Y110.728 E96.79117
G1 X88.361 Y108.729 E96.93392
;LAYER_CHANGE
;Z:0.65
;HEIGHT:0.3
G1 Z0.650 F7800.000
G1 X88.445 Y90.720
;TYPE:Perimeter
;WIDTH:0.45
G1 F3600.000
G1 X88.536 Y90.591 E96.94152
G1 X90.061 Y88.995 E97.04766
G1 X90.192 Y88.879 E97.05609
G1 X91.944 Y87.554 E97.16176
G1 X93.839 Y86.519 E97.26561
G1 X94.019 Y86.439 E97.27507
G1 X96.036 Y85.720 E97.37804
G1 X98.205 Y85.293 E97.48435
G1 X100.476 Y85.196 E97.59368
G1 X102.827 Y85.464 E97.70751
G1 X104.864 Y86.019 E97.80902
G1 X105.122 Y86.116 E97.82232
G1 X107.045 Y86.982 E97.92374
G1 X108.866 Y88.152 E98.02785
G1 X109.079 Y88.322 E98.04094
G1 X110.655 Y89.733 E98.14271
G1 X112.034 Y91.397 E98.24664
G1 X112.183 Y91.622 E98.25960
G1 X113.243 Y93.409 E98.35955
G1 X114.059 Y95.412 E98.46359
G1 X114.114 Y95.584 E98.47227
G1 X114.616 Y97.733 E98.57842
G1 X114.790 Y100.000 E98.68778
G1 X114.601 Y102.359 E98.80159
G1 X114.099 Y104.473 E98.90611
G1 X113.329 Y106.384 E99.00517
G1 X113.199 Y106.674 E99.02049
G1 X112.098 Y108.515 E99.12365
G1 X110.649 Y110.274 E99.23325
G1 X108.925 Y111.805 E99.34413
G1 X107.051 Y113.015 E99.45144
G1 X105.105 Y113.894 E99.55414
G1 X104.960 Y113.951 E99.56163
G1 X102.795 Y114.543 E99.66956
G1 X100.480 Y114.804 E99.78163
G1 X98.436 Y114.726 E99.88002
G1 X98.163 Y114.700 E99.89319
G1 X96.039 Y114.280 E99.99734
G1 X94.078 Y113.580 E100.09748
G1 X93.798 Y113.460 E100.11212
G1 X91.947 Y112.448 E100.21362
G1 X90.113 Y111.052 E100.32445
G1 X88.500 Y109.365 E100.43668
G1 X87.234 Y107.554 E100.54298
G1 X86.278 Y105.635 E100.64611
G1 X86.211 Y105.471 E100.65464
G1 X85.556 Y103.386 E100.75975
G1 X85.215 Y101.225 E100.86496
G1 X85.201 Y101.051 E100.87337
G1 X85.211 Y98.826 E100.98039
G1 X85.530 Y96.734 E101.08215
G1 X85.578 Y96.526 E101.09240
G1 X86.238 Y94.461 E101.19666
G1 X87.195 Y92.516 E101.30094
G1 X87.304 Y92.333 E101.31119
G1 X88.410 Y90.769 E101.40334
G1 X88.130 Y90.497 F7800.000
G1 F3600.000
G1 X88.238 Y90.345 E101.41231
G1 X89.793 Y88.717 E101.52059
G1 X89.948 Y88.581 E101.53050
G1 X91.735 Y87.229 E101.63827
G1 X93.669 Y86.173 E101.74426
G1 X93.876 Y86.081 E101.75519
G1 X95.933 Y85.348 E101.86022
G1 X98.148 Y84.912 E101.96875
G1 X98.376 Y84.888 E101.97979
G1 X100.490 Y84.810 E102.08157
G1 X102.900 Y85.084 E102.19822
G1 X104.982 Y85.651 E102.30201
G1 X105.269 Y85.759 E102.31676
G1 X107.230 Y86.642 E102.42016
G1 X109.091 Y87.839 E102.52660
G1 X109.328 Y88.028 E102.54115
G1 X110.934 Y89.465 E102.64483
G1 X112.345 Y91.167 E102.75116
G1 X112.510 Y91.417 E102.76557
G1 X113.590 Y93.237 E102.86734
G1 X114.422 Y95.281 E102.97348
G1 X114.486 Y95.481 E102.98363
G1 X114.998 Y97.674 E103.09193
G1 X115.177 Y100.000 E103.20413
G1 X115.001 Y102.311 E103.31560
G1 X114.978 Y102.438 E103.32181
G1 X114.467 Y104.591 E103.42821
G1 X113.684 Y106.535 E103.52903
G1 X113.542 Y106.853 E103.54579
G1 X112.414 Y108.738 E103.65144
G1 X110.927 Y110.542 E103.76388
G1 X109.159 Y112.113 E103.87762
G1 X107.236 Y113.355 E103.98773
G1 X105.255 Y114.250 E104.09229
G1 X105.082 Y114.318 E104.10124
G1 X102.868 Y114.922 E104.21160
G1 X100.494 Y115.190 E104.32650
G1 X98.410 Y115.111 E104.42681
G1 X98.108 Y115.082 E104.44143
G1 X95.936 Y114.653 E104.54790
G1 X93.937 Y113.939 E104.64998
G1 X93.630 Y113.807 E104.66608
G1 X91.736 Y112.772 E104.76987
G1 X89.856 Y111.341 E104.88350
G1 X88.342 Y109.775 E104.98827
G1 X88.194 Y109.601 E104.99926
G1 X86.902 Y107.751 E105.10778
G1 X85.927 Y105.794 E105.21293
G1 X85.848 Y105.602 E105.22293
G1 X85.179 Y103.474 E105.33022
G1 X84.832 Y101.270 E105.43753
G1 X84.816 Y101.065 E105.44743
G1 X84.826 Y98.795 E105.55658
G1 X85.151 Y96.661 E105.66041
G1 X85.206 Y96.424 E105.67213
G1 X85.879 Y94.317 E105.77853
G1 X86.856 Y92.331 E105.88496
G1 X86.981 Y92.122 E105.89667
G1 X88.095 Y90.546 E105.98951
G1 X87.939 Y90.099 F7800.000
;TYPE:External perimeter
G1 F1800.000
G1 X89.526 Y88.439 E106.09993
G1 X89.703 Y88.282 E106.11134
G1 X91.525 Y86.904 E106.22119
G1 X93.498 Y85.827 E106.32933
G1 X93.734 Y85.722 E106.34172
G1 X95.831 Y84.975 E106.44881
G1 X98.090 Y84.530 E106.55958
G1 X98.349 Y84.503 E106.57207
G1 X100.505 Y84.423 E106.67585
G1 X102.973 Y84.704 E106.79532
G1 X105.101 Y85.284 E106.90140
G1 X105.416 Y85.402 E106.91760
G1 X107.414 Y86.302 E107.02298
G1 X109.316 Y87.525 E107.13174
G1 X109.577 Y87.733 E107.14777
G1 X111.212 Y89.197 E107.25334
G1 X112.655 Y90.937 E107.36207
